usr/share/icons/biglinux-icons-material/scalable/apps/accessories-screenshot.svg

<svg width="24" height="24" viewBox="0 0 24 24" fill="none" xmlns="http://www.w3.org/2000/svg">
<path fill-rule="evenodd" clip-rule="evenodd" d="M9.59604 1.11359C9.71588 1.11486 9.83043 1.0996 9.93969 1.06779C11.3755 0.973736 12.8111 0.977551 14.2467 1.07924C15.5484 1.18066 16.8085 1.46308 18.0269 1.9265C20.0525 2.76044 21.4386 4.20689 22.185 6.26585C22.6119 7.50549 22.8639 8.78021 22.9411 10.09C23.0478 11.7347 23.0096 13.3758 22.8265 15.0133C22.6895 16.1642 22.3916 17.271 21.933 18.3336C21.0824 20.1761 19.704 21.447 17.7978 22.1463C16.2531 22.6682 14.6647 22.943 13.0325 22.9706C11.1966 23.0661 9.37913 22.9287 7.57997 22.5585C4.26839 21.8208 2.22559 19.8018 1.45158 16.5017C1.12311 15.0161 0.974199 13.5124 1.00483 11.9906C0.968176 10.3724 1.14 8.77709 1.52031 7.20471C2.33171 4.11908 4.2905 2.20701 7.39669 1.46852C8.12048 1.29157 8.8536 1.17326 9.59604 1.11359Z" fill="url(#paint0_radial_4_408)"/>
<path d="M6.84376 3.75C6.52636 3.75 6.27084 3.96599 6.27084 4.23469V7.1875H3.40626C3.08886 7.1875 2.83334 7.44302 2.83334 7.76042C2.83334 8.07781 3.08886 8.33333 3.40626 8.33333H6.27084V15.8695C6.27084 16.1387 6.52636 16.3542 6.84376 16.3542H16.5833V19.307C16.5833 19.5762 16.8389 19.7917 17.1563 19.7917C17.4737 19.7917 17.7292 19.5757 17.7292 19.307V16.3542H20.5938C20.9112 16.3542 21.1667 16.0986 21.1667 15.7812C21.1667 15.4638 20.9112 15.2083 20.5938 15.2083H17.7292V7.67219C17.7292 7.40349 17.4737 7.1875 17.1563 7.1875H7.41668V4.23469C7.41668 3.96599 7.16116 3.75 6.84376 3.75ZM7.41668 8.33333H16.5833V15.2083H7.41668V8.33333Z" fill="white"/>
<defs>
<radialGradient id="paint0_radial_4_408" cx="0" cy="0" r="1" gradientUnits="userSpaceOnUse" gradientTransform="translate(12 1) rotate(90) scale(22)">
<stop stop-color="#D6B1FF"/>
<stop offset="1" stop-color="#A75DFA"/>
</radialGradient>
</defs>
</svg>

<svg xmlns="http://www.w3.org/2000/svg" width="24" height="24" fill="none"><path fill="url(#a)" fill-rule="evenodd" d="M9.596 1.114c.12 0 .234-.014.344-.046a31.627 31.627 0 0 1 4.307.011c1.301.102 2.561.384 3.78.848 2.025.833 3.412 2.28 4.158 4.339.427 1.24.679 2.514.756 3.824a27.94 27.94 0 0 1-.114 4.923 11.88 11.88 0 0 1-.894 3.32c-.85 1.843-2.229 3.114-4.135 3.813a15.624 15.624 0 0 1-4.765.825 21.423 21.423 0 0 1-5.453-.413c-3.312-.737-5.354-2.756-6.128-6.056a19.047 19.047 0 0 1-.447-4.511 18.491 18.491 0 0 1 .515-4.786c.812-3.086 2.77-4.998 5.877-5.736a13.953 13.953 0 0 1 2.199-.355Z" clip-rule="evenodd"/><path fill="#fff" d="M6.844 3.75c-.318 0-.573.216-.573.485v2.952H3.406a.572.572 0 0 0-.573.573c0 .318.256.573.573.573h2.865v7.537c0 .269.255.484.573.484h9.74v2.953c0 .27.255.485.572.485.318 0 .573-.216.573-.485v-2.953h2.865a.572.572 0 1 0 0-1.146h-2.865V7.672c0-.269-.255-.484-.573-.484h-9.74V4.235c0-.269-.255-.485-.572-.485Zm.573 4.583h9.166v6.875H7.417V8.333Z"/><defs><radialGradient id="a" cx="0" cy="0" r="1" gradientTransform="matrix(0 22 -22 0 12 1)" gradientUnits="userSpaceOnUse"><stop stop-color="#D6B1FF"/><stop offset="1" stop-color="#A75DFA"/></radialGradient></defs></svg>
